X:19502
T:Sadler's Wells Hornpipe
R:Hornpipe
C:Trad.
O:England
Z:Paul Hardy's Possible Tunebook 2015 (see www.paulhardy.net). Creative Commons cc by-nc-sa licenced.
M:4/4
L:1/8
Q:1/4=140
K:G
BA|"G"G2G,2 G,cBA|BdBG GFED|"C"C2EC"G"B,2DB,|"D7"A,2A2 A2BA|
"G"G2G,2 G,cBA|BdBG GFED|"C"c2BA"G"B2AG|"D"D2 "G"G2 G2:|
|:ef|"G"g2dg "C"ecBA|"G"BdBG "Em"GFED|"C"C2EC"G"B,2DB,|"D7"A,2A2 A2ef|
"G"g2dg "C"ecBA|"G"BdBG "Em"GFED|"C"c2BA"G"B2AG|"D"D2"G"G2 G2:|

